X: 6923
T: Cherish The Ladies
R: jig
M: 6/8
K: Dmajor
|:~d3 fed|afd fed|~B3 ~g3|ece gfe|1
dcd fed|afd gbg|fdB AGF|GEF GFE:|2
~a3 bgb|afa g2e|fdB AGF|GEF GFE||

